static/logos/useberry-wordmark-color.svg

<svg width="100" height="23" viewBox="0 0 100 23" fill="none" xmlns="http://www.w3.org/2000/svg">
<g clip-path="url(#clip0_1_511)">
<path fill-rule="evenodd" clip-rule="evenodd" d="M59.8638 10.4V16H60.9638H62.0638V15.35C62.0638 14.9925 62.0974 14.7027 62.1388 14.7061C62.18 14.7095 62.3502 14.9007 62.517 15.1311C62.9796 15.7699 63.6532 16.0948 64.521 16.0977C65.4672 16.1008 66.057 15.8829 66.705 15.2906C67.5944 14.4778 67.9638 13.4434 67.9638 11.7661C67.9638 10.301 67.6242 9.28659 66.8544 8.45139C66.1592 7.69729 64.8158 7.31949 63.8204 7.59819C63.3246 7.73689 62.6392 8.27139 62.3512 8.74389C62.1652 9.04889 62.1644 9.04219 62.1642 6.92499L62.1638 4.79999H61.0138H59.8638V10.4ZM43.8868 7.64839C42.4242 8.06069 41.7356 8.84259 41.7212 10.1077C41.7054 11.5018 42.5274 12.1705 44.8432 12.6478C46.17 12.9213 46.5318 13.0879 46.6276 13.4696C46.7748 14.0559 46.1798 14.5003 45.2486 14.4996C44.6242 14.4992 44.1402 14.2507 43.883 13.7985C43.73 13.5299 43.6646 13.5012 43.2034 13.5006C42.9228 13.5003 42.4172 13.5288 42.08 13.5641C41.4808 13.6267 41.4684 13.6341 41.5296 13.8891C41.6872 14.5467 42.2046 15.2161 42.8638 15.6154C43.91 16.2493 46.0408 16.3172 47.3076 15.757C48.4632 15.2459 49.0102 14.4237 48.9464 13.2936C48.9184 12.7985 48.8476 12.5387 48.6696 12.279C48.2042 11.5997 47.6152 11.3542 45.2482 10.8528C44.0344 10.5956 43.6598 10.0886 44.2488 9.49969C44.568 9.18039 45.0886 9.04489 45.6158 9.14379C46.0088 9.21749 46.6638 9.73689 46.6638 9.97479C46.6638 10.1047 46.7698 10.1189 47.3388 10.0652C47.71 10.0301 48.1826 10.0011 48.3888 10.0007C48.6988 10.0001 48.7638 9.96479 48.7638 9.79679C48.7638 9.12999 48.031 8.24719 47.149 7.85139C46.629 7.61809 46.3648 7.56859 45.4728 7.53709C44.7378 7.51119 44.2526 7.54529 43.8868 7.64839ZM72.1662 7.66029C71.0848 7.95089 70.1698 8.72559 69.7026 9.74599C69.156 10.94 69.1586 12.7654 69.7086 13.9667C70.4282 15.5387 72.1314 16.3486 74.1776 16.0916C75.6596 15.9056 76.73 15.1256 77.1386 13.9341L77.247 13.6181L76.2088 13.5473L75.1706 13.4766L74.9052 13.7919C74.5318 14.2357 74.159 14.4 73.5252 14.4C72.8944 14.4 72.5136 14.2782 72.1756 13.9683C71.8786 13.6961 71.5688 13.039 71.566 12.675L71.5638 12.4H74.4138H77.2638V11.6894C77.2638 10.4155 76.889 9.35929 76.1766 8.62509C75.2306 7.65039 73.6332 7.26609 72.1662 7.66029ZM82.3668 7.65829C81.8872 7.86629 81.6848 8.06939 81.378 8.64999L81.1138 9.14999L81.0846 8.37499L81.0554 7.59999H79.9596H78.8638V11.8V16H80.0138H81.1638V13.3901C81.1638 10.4786 81.1944 10.3156 81.835 9.82699C82.2266 9.52829 83.0942 9.40219 83.4494 9.59229C83.5672 9.65539 83.6638 9.68909 83.6638 9.66709C83.6638 9.64519 83.818 9.21239 84.0064 8.70549L84.3492 7.78369L84.0096 7.64179C83.5722 7.45899 82.8086 7.46669 82.3668 7.65829ZM89.0138 7.63999C88.6058 7.81989 88.1706 8.27159 87.9628 8.73119C87.8024 9.08539 87.786 9.09599 87.7284 8.88119C87.6944 8.75399 87.6658 8.41379 87.6652 8.12499L87.6638 7.59999H86.5638H85.4638V11.8V16H86.6138H87.7638V13.4316C87.7638 11.0283 87.7772 10.8353 87.9734 10.4302C88.1168 10.134 88.3244 9.91419 88.6306 9.73479C89.027 9.50259 89.15 9.47909 89.702 9.53069L90.3258 9.58889L90.6448 8.70739C90.8202 8.22259 90.9638 7.80199 90.9638 7.77269C90.9638 7.74349 90.822 7.67019 90.6488 7.60979C90.2248 7.46199 89.3824 7.47759 89.0138 7.63999ZM32.2242 8.77499C32.1904 9.42129 32.1982 10.8745 32.2414 12.0045C32.317 13.9773 32.3314 14.082 32.6026 14.6363C33.0578 15.5664 33.9638 16.1009 35.083 16.0994C36.0354 16.0982 36.985 15.6026 37.3884 14.8962C37.5124 14.6791 37.6474 14.5012 37.6888 14.5008C37.73 14.5003 37.7638 14.8375 37.7638 15.25V16H38.8638H39.9638V11.8V7.59999H38.8138H37.6638L37.6614 10.025C37.6588 12.5489 37.6034 13.0653 37.2892 13.4861C36.9294 13.9681 36.5934 14.1429 36.0264 14.1429C35.414 14.1429 35.0528 13.9509 34.7594 13.4696C34.5786 13.1731 34.5644 12.9492 34.5642 10.375L34.5638 7.59999H33.4248H32.2858L32.2242 8.77499ZM74.0966 9.33639C74.2762 9.41139 74.543 9.61529 74.6896 9.78949C74.9598 10.1107 75.1994 10.7614 75.104 10.9156C75.0754 10.962 74.2612 11 73.2948 11H71.5376L71.5958 10.6407C71.7652 9.59779 73.0804 8.91179 74.0966 9.33639ZM64.8416 9.66439C65.277 9.99649 65.554 10.6149 65.6294 11.4229C65.7832 13.0685 65.0274 14.3 63.8638 14.3C62.7002 14.3 61.9444 13.0685 62.098 11.4229C62.1966 10.3667 62.6548 9.61109 63.3256 9.39829C63.784 9.25289 64.457 9.37109 64.8416 9.66439Z" fill="black"/>
<path d="M99.9609 7.59998H98.7281H97.4955L96.6157 10.7C96.1317 12.405 95.7077 13.8 95.6733 13.8C95.6389 13.8 95.2229 12.4162 94.7485 10.725L93.8863 7.64998L92.6735 7.62188C92.0065 7.60648 91.4609 7.60648 91.4609 7.62188C91.4609 7.63738 92.1359 9.58388 92.9611 11.9476C94.6263 16.7172 94.6033 16.5941 93.9331 17.158C93.6527 17.3939 93.5625 17.416 93.0995 17.3616L92.5801 17.3005L92.3647 18.0253C92.2461 18.4239 92.1273 18.8252 92.1007 18.917C92.0621 19.0507 92.1661 19.1077 92.6211 19.2021C94.1591 19.5214 95.7257 18.845 96.3691 17.5838C96.4843 17.3578 97.2911 15.1428 98.1619 12.6615C99.0327 10.1802 99.7909 8.03748 99.8467 7.89998L99.9609 7.59998Z" fill="black"/>
<path fill-rule="evenodd" clip-rule="evenodd" d="M53.0593 7.59999C51.9779 7.89059 51.0629 8.66529 50.5957 9.68569C50.0491 10.8797 50.0517 12.7051 50.6017 13.9064C51.3213 15.4784 53.0245 16.2883 55.0707 16.0313C56.5527 15.8453 57.6231 15.0653 58.0317 13.8738L58.1401 13.5578L57.1019 13.487L56.0637 13.4163L55.7983 13.7316C55.4249 14.1754 55.0521 14.3397 54.4183 14.3397C53.7875 14.3397 53.4067 14.2179 53.0687 13.908C52.7717 13.6358 52.4619 12.9787 52.4591 12.6147L52.4569 12.3397H55.3069H58.1569V11.6291C58.1569 10.3552 57.7821 9.29899 57.0697 8.56479C56.1237 7.59009 54.5263 7.20579 53.0593 7.59999ZM55.5827 9.72919C55.4361 9.55499 55.1693 9.35109 54.9897 9.27609C53.9735 8.85149 52.6583 9.53749 52.4889 10.5804L52.4307 10.9397H54.1879C55.1543 10.9397 55.9685 10.9017 55.9971 10.8553C56.0925 10.7011 55.8529 10.0504 55.5827 9.72919Z" fill="black"/>
<path d="M0 0H11.4V22.8C5.10396 22.8 0 17.696 0 11.4V0Z" fill="#FF2F5B"/>
<path d="M22.7984 11.4H11.3984V22.8C17.6945 22.8 22.7984 17.6961 22.7984 11.4Z" fill="#4E4AFF"/>
<path d="M17.0984 11.4C20.2465 11.4 22.7984 8.84802 22.7984 5.7C22.7984 2.55198 20.2465 0 17.0984 0C13.9504 0 11.3984 2.55198 11.3984 5.7C11.3984 8.84802 13.9504 11.4 17.0984 11.4Z" fill="#FFBB25"/>
</g>
<defs>
<clipPath id="clip0_1_511">
<rect width="100" height="22.8" fill="white"/>
</clipPath>
</defs>
</svg>

<svg xmlns="http://www.w3.org/2000/svg" width="278.261" height="64" fill="none" viewBox="0 0 100 23"><g clip-path="url(#a)"><path fill="#000" fill-rule="evenodd" d="M59.864 10.4V16h2.2v-.65c0-.357.033-.647.075-.644.041.004.211.195.378.425.463.639 1.136.964 2.004.967.946.003 1.536-.215 2.184-.807.89-.813 1.259-1.848 1.259-3.525 0-1.465-.34-2.48-1.11-3.315-.695-.754-2.038-1.132-3.034-.853-.495.139-1.18.673-1.469 1.146-.186.305-.187.298-.187-1.819V4.8h-2.3v5.6ZM43.887 7.648c-1.463.413-2.151 1.195-2.166 2.46-.016 1.394.806 2.063 3.122 2.54 1.327.273 1.689.44 1.785.822.147.586-.448 1.03-1.38 1.03-.624 0-1.108-.25-1.365-.701-.153-.27-.218-.298-.68-.298-.28 0-.786.028-1.123.063-.6.063-.612.07-.55.325.157.658.675 1.327 1.334 1.726 1.046.634 3.177.702 4.444.142 1.155-.511 1.702-1.333 1.638-2.463-.028-.495-.098-.755-.276-1.015-.466-.68-1.055-.925-3.422-1.426-1.214-.257-1.588-.764-1-1.353.32-.32.84-.455 1.368-.356.393.073 1.048.593 1.048.83 0 .13.106.145.675.091.371-.035.844-.064 1.05-.064.31 0 .375-.036.375-.204 0-.667-.733-1.55-1.615-1.946-.52-.233-.784-.282-1.676-.314-.735-.026-1.22.008-1.586.111Zm28.28.012a3.82 3.82 0 0 0-2.464 2.086c-.547 1.194-.544 3.02.006 4.22.72 1.573 2.422 2.383 4.469 2.126 1.482-.186 2.552-.966 2.96-2.158l.109-.316-1.038-.07-1.038-.071-.266.315c-.373.444-.746.608-1.38.608-.63 0-1.011-.122-1.35-.432-.296-.272-.606-.929-.609-1.293l-.002-.275h5.7v-.71c0-1.274-.375-2.33-1.087-3.065-.946-.975-2.544-1.359-4.01-.965Zm10.2-.002c-.48.208-.682.411-.989.992l-.264.5-.03-.775-.029-.775h-2.191V16h2.3v-2.61c0-2.911.03-3.074.671-3.563.392-.299 1.26-.425 1.614-.235.118.063.215.097.215.075 0-.022.154-.455.342-.962l.343-.921-.34-.142c-.437-.183-1.2-.175-1.642.016Zm6.647-.018c-.408.18-.843.632-1.051 1.091-.16.354-.177.365-.235.15-.034-.127-.062-.467-.063-.756l-.001-.525h-2.2V16h2.3v-2.568c0-2.404.013-2.597.21-3.002.143-.296.35-.516.657-.695.396-.232.519-.256 1.071-.204l.624.058.319-.882c.175-.484.319-.905.319-.934 0-.03-.142-.103-.315-.163-.424-.148-1.267-.132-1.635.03Zm-56.79 1.135c-.034.646-.026 2.1.017 3.23.076 1.972.09 2.077.362 2.631.455.93 1.36 1.465 2.48 1.463.952 0 1.902-.496 2.305-1.203.124-.217.26-.395.3-.395.042 0 .076.337.076.749V16h2.2V7.6h-2.3l-.003 2.425c-.002 2.524-.058 3.04-.372 3.461-.36.482-.696.657-1.263.657-.612 0-.973-.192-1.267-.673-.18-.297-.195-.52-.195-3.095V7.6H32.286l-.062 1.175Zm41.873.561c.18.075.446.28.593.453.27.322.51.972.414 1.127-.029.046-.843.084-1.81.084h-1.756l.058-.36c.17-1.042 1.484-1.728 2.5-1.304Zm-9.255.328c.435.332.712.95.787 1.759.154 1.646-.602 2.877-1.765 2.877-1.164 0-1.92-1.232-1.766-2.877.099-1.056.557-1.812 1.228-2.025.458-.145 1.131-.027 1.516.266Z" clip-rule="evenodd"/><path fill="#000" d="M99.96 7.6h-2.464l-.88 3.1c-.484 1.705-.908 3.1-.943 3.1-.034 0-.45-1.384-.924-3.075l-.863-3.075-1.212-.028c-.668-.016-1.213-.016-1.213 0 0 .015.675 1.962 1.5 4.326 1.665 4.77 1.642 4.646.972 5.21-.28.236-.37.258-.834.204l-.519-.061-.215.724c-.119.399-.238.8-.264.892-.039.134.065.19.52.285 1.538.32 3.105-.357 3.748-1.618.115-.226.922-2.441 1.793-4.922.87-2.482 1.629-4.625 1.685-4.762l.114-.3Z"/><path fill="#000" fill-rule="evenodd" d="M53.06 7.6a3.82 3.82 0 0 0-2.464 2.086c-.547 1.194-.544 3.02.006 4.22.72 1.572 2.423 2.382 4.469 2.125 1.482-.186 2.552-.966 2.96-2.157l.11-.316-1.04-.071-1.037-.07-.266.315c-.373.443-.746.608-1.38.608-.63 0-1.011-.122-1.35-.432-.296-.272-.606-.93-.609-1.293l-.002-.275h5.7v-.71c0-1.275-.375-2.331-1.087-3.065-.946-.975-2.544-1.36-4.01-.965Zm2.523 2.13a1.894 1.894 0 0 0-.593-.454c-1.017-.425-2.332.261-2.501 1.304l-.058.36h1.757c.966 0 1.78-.038 1.81-.085.095-.154-.145-.805-.415-1.126Z" clip-rule="evenodd"/><path fill="#FF2F5B" d="M0 0h11.4v22.8C5.104 22.8 0 17.696 0 11.4V0Z"/><path fill="#4E4AFF" d="M22.798 11.4h-11.4v11.4c6.297 0 11.4-5.104 11.4-11.4Z"/><path fill="#FFBB25" d="M17.098 11.4a5.7 5.7 0 1 0 0-11.4 5.7 5.7 0 0 0 0 11.4Z"/></g><defs><clipPath id="a"><path fill="#fff" d="M0 0h100v22.8H0z"/></clipPath></defs></svg>
